!!!ONB: MCCC : IJH0423_02 : Extracted Monophonic Melody
!!!COM: Haydn, Joseph
!!!OPR: String Quartet in C major
!!!OMV: 2
!!!SCT: Hob.III:77 ; Op.76 No.3
!!!ODT: 1796///
**kern
*thru
*k[f#]
*G:
*clefF
*M4/4
4.g
8a
=1
4b
4a
4cc
4b
=2
8a
8f#
4g
4ee
4dd
=3
4cc
4b
4a
8b
8g
=4
2dd
4.g
8a
=5
4b
4a
4cc
4b
=6
8a
8f#
4g
4ee
4dd
=7
4cc
4b
4a
8b
8g
=8
2dd
4a
4b
=9
8a
8f#
4d
4cc
4b
=10
8a
8f#
4d
4dd
4cc
=11
4.b
8b
4cc#
8cc#
8dd
=12
2dd
4.gg
8ff#
=13
4ee
4dd
4.ee
8dd
=14
4cc
4b
4.a
16b
16cc
=15
8dd
8ee
8cc
8a
4g
8a
8g
=16
2g
4.gg
8ff#
=17
4ee
4dd
4.ee
8dd
=18
4cc
4b
4.a
16b
16cc
=19
8dd
8ee
8cc
8a
4g
8a
8g
=20
2g
16B
16d
16g
16b
16dd
16gg
16ff#
16ee
=21
16dd
16gg
16bb
16gg
16ff#
16d
16ff#
16gg
16gg#
16aa
16ccc
16ff#
16aa
16gg
16bb
16dd
=22
16dd
16cc
16ee
16cc
16a#
16b
16f#
16g
16r
16gg
16ddd
16ccc
16ff#
16ccc
16aa#
16bb
=23
16r
16ee
16bb
16aa
16dd
16aa
16ff#
16gg
16r
16cc
16gg
16ff#
16aa
16gg
16bb
16gg
=24
16ff#
16aa
16ccc#
16ddd
16d
16e
16c
16d
16B
16d
16g
16b
16dd
16gg
16ff#
16ee
=25
16dd
16gg
16bb
16gg
16ff#
16d
16ff#
16gg
16gg#
16aa
16ccc
16ff#
16aa
16gg
16bb
16dd
=26
16dd
16cc
16ee
16cc
16a#
16b
16f#
16g
16r
16gg
16ddd
16ccc
16ff#
16ccc
16aa#
16bb
=27
16r
16ee
16bb
16aa
16dd
16aa
16ff#
16gg
16r
16cc
16gg
16ff#
16aa
16gg
16bb
16gg
=28
16ff#
16aa
16ccc#
16ddd
4dd
16d
16f#
16dd
16f#
16d
16g
16dd
16g
=29
16d
16f#
16a
16cc#
16dd
16ff#
16aa
16ddd
16aa
16ff#
16dd
16ff#
16gg
16dd
16b
16g
=30
16d
16f#
16a
16cc#
16dd
16ff#
16aa
16ddd
16b
16dd
16gg
16bb
16d
16aa
16ff#
16d
=31
16e
16g
16b
16ee
16gg
16bb
16gg
16ee
16A
16c#
16e
16g
16cc#
16ee
16gg
16g
=32
16f#
16dd
16a
16f#
16d
16e
16c
16d
16B
16d
16g
16b
16dd
16gg
16B
16g
=33
16c
16g
16ee
16g
16B
16g
16dd
16g
16c
16e
16g
16cc
16ee
16gg
16B
16g
=34
16A
16c
16d
16f#
16g
16b
16dd
16gg
16c
16d
16f#
16a
16cc
16ff#
16gg
16aa
=35
16b
16gg
16cc
16gg
16e
16gg
16c#
16ee
16d
16g
16b
16dd
16d
16cc
16ff#
16cc
=36
16b
16gg
16dd
16b
16g
16d
16B
16d
24G
24B
24d
24g
24b
24dd
16gg
16b
16B
16g
=37
16c
16g
16ee
16g
16B
16g
16dd
16g
16c
16e
16g
16cc
16ee
16gg
16B
16g
=38
16A
16c
16d
16f#
16g
16b
16dd
16gg
16c
16d
16f#
16a
16cc
16ff#
16gg
16aa
=39
16b
16gg
16cc
16gg
16e
16gg
16c#
16ee
16d
16g
16b
16dd
16d
16cc
16ff#
16cc
=40
16b
16gg
16dd
16b
8g
4r
8dd
8b
8f#
=41
8g
4gg
8ff#
8r
4ee
8dd[
=42
8dd]
4cc
8b
8r
4cc#
8dd
=43
8ee
4ff#
8gg
8ddd
4ccc
8bb
=44
8bb
8aa
16gg
16ff#
16ee
16dd
8r
8dd
8b
8f#
=45
8g
4gg
8ff#
8r
4ee
8dd[
=46
8dd]
4cc
8b
8r
4cc#
8dd
=47
8ee
4ff#
8gg
8ddd
4ccc
8bb[
=48
8bb]
8aa
16gg
16ff#
16ee
16dd
8r
4dd
8cc#
=49
8dd
8ff#
8aa
8ff#
8dd
4ee
8dd[
=50
8dd]
8cc
8b
8a
16g#
16a
16b
16a
16cc
16b
16ee
16dd
=51
16cc#
16dd
16ee
16dd
16gg
16ff#
16aa
16gg
4bb
16aa
16gg
16ff#
16gg
=52
4gg
4ff#
16ee
16dd#
16ee
16gg
8cc#
8dd[
=53
8dd]
4cc
8b
16cc
16b
16cc
16ee
8a#
[8b
=54
8b]
4a
8g
16ee
16dd#
16ee
16dd#
8ee
16dd
16cc
=55
8b
8a
8cc
8ee
4g
4f#
=56
4g
4r
16ee
16dd#
16ee
16gg
8cc#
8dd[
=57
8dd]
4cc
8b
16cc
16b
16cc
16ee
8a#
[8b
=58
8b]
4a
8g
16ee
16dd#
16ee
16dd#
8ee
16dd
16cc
=59
8b
8a
8cc
8ee
4g
4f#
=60
4g
4.r
8e
8B
8c#
=61
8d
4g
8f#
8e
4a
8g
=62
4c
4B
8g#
8a
8f#
8g
=63
8e
8f#
8d#
8e
8c
4c#
8A
=64
2d
2r
=65
8r
4gg
8ff#
8r
4aa
8gg
=66
8ff#
4eee
4ddd
4ccc
8bb[
=67
8bb]
4aa
8.gg
16ff#
16gg
16ff#
8gg
8cc#
=68
2dd
2r
=69
1r
=70
1r
=71
1r
=72
2r
8b
8cc
8cc#
8dd[
=73
8dd]
4cc
8b
8cc
8b
8b-
8a
=74
8g
8g
8f#
8f
8e
8g
8f#
8a
=75
8g
8b
8cc
8ee
4g
4f#
=76
4g
4r
8b
8cc
8cc#
8dd[
=77
8dd]
4cc
8b
8cc
8b
8b-
8a
=78
8g
8g
8f#
8f
8e
8g
8f#
8a
=79
8g
8b
8cc
8ee
4g
4f#
=80
4g
4r
4.g
8a
=81
4b
4a
4cc
4b
=82
8a
8f#
4g
4ee
4dd
=83
4cc
4b
4a
8b
8g
=84
2dd
4.gg
8aa
=85
4bb
4aa
4ccc
4bb
=86
8aa
8ff#
4gg
4eee
4ddd
=87
4ccc
4bb
4aa
8bb
8gg
=88
2ddd
4aa
4bb
=89
8aa
8ff#
4dd
4ccc
4bb
=90
8aa
8ff#
4dd
4ddd
4ccc
=91
4.bb
8bb
4ccc#
8ccc#
8ddd
=92
2ddd
4.ggg
8fff#
=93
4eee
4ddd
4.eee
8ddd
=94
4ccc
4bb
4.aa
16bb
16ccc
=95
8ddd
8eee
8ccc
8aa
4gg
8.aa
16gg
=96
8gg
16aa
16bb
16ccc
16ddd
16eee
16fff#
4.ggg
8fff#
=97
4eee
4ddd
4.eee
8ddd
=98
4ccc
4bb
4.aa
16bb
16ccc
=99
8ddd
8eee
8ccc
8aa
4gg
8.aa
16gg
=100
2..gg
8ff
=101
2ee
2dd[
=102
8dd]
4cc
4b
8a
8a
8a
=103
1a
=104
1b
==
*-
